X: 10
T:Storm-Stayed at Grady's
M:C | 
L:1/8
C:Paul G. MacDonald
R:Reel
K:EDor
EEEG FDB,D | DFAF G2 EF | GBB/B/B dBGB | Aegf eEED | EEEG FDB,D | DFAF G2 EF | GBB/B/B dBGB |1 Aegf eEED :|2 Aegf eEEA || Bee/e/e fedf | d/d/dfd gdfd | Bee/e/e fedf | gfed eEEA | Bee/e/e fedf | d/d/dfd gdfd | gbag fagd | ddBA BEEA | Bee/e/e fedf | d/d/dfd gdfd | gefd edBA | B/c/dAF GEFD | EEEG FDB,D | DFAF G2EF | GBB/B/B dBGB | Aegf eEE2 ||
